usr/share/icons/biglinux-icons-material/symbolic/actions/flag-outline-thin-symbolic.svg

<svg width="16" height="16" version="1.1" xmlns="http://www.w3.org/2000/svg">
 <path d="m2 1v14h0.99967v-6a0.99967 1 0 0 0 0.0039 0h3.3817l0.72047 1.4473a0.99967 1 0 0 0 0.89619 0.55273h4.9984a0.99967 1 0 0 0 0.99968-1v-6a0.99967 1 0 0 0-0.99968-1h-3.3837l-0.72047-1.4473a0.99967 1 0 0 0-0.89424-0.55273h-4.9984a0.99967 1 0 0 0-0.0039 0zm1.0036 1h4.9984l0.99967 2h3.9987v6h-4.9984l-0.99967-2h-3.9987z" fill="#363636"/>
</svg>

<svg xmlns="http://www.w3.org/2000/svg" width="16" height="16"><path fill="#dedede" d="M2 1v14h1V9a1 1 0 0 0 .004 0h3.381l.72 1.447a1 1 0 0 0 .897.553H13a1 1 0 0 0 1-1V4a1 1 0 0 0-1-1H9.617l-.72-1.447A1 1 0 0 0 8.001 1H3.004A1 1 0 0 0 3 1zm1.004 1h4.998l1 2H13v6H8.002l-1-2H3.004z"/></svg>
